!!!OTL@@DE: Mich fliehen alle Freuden
!!!COM: Paesiello, Giovanni
!!!ODT: 1788
!!!OMD: Andantino
!!!ONB: Aus der Oper: "Die sch&ouml;ne M&uuml;llerin"
!!!LDT: 1791
!!!OCL: Erk, Ludwig
!!!GCO: Deutscher Liederschatz, Band 1
**kern	**kern	**kern
*staff3	*staff2	*staff1
*Ipiano	*Ipiano	*Ivox
*clefF4	*clefG2	*clefG2
*k[b-]	*k[b-]	*k[b-]
*F:	*F:	*F:
*M6/8	*M6/8	*M6/8
*MM96	*MM96	*MM96
8r	8c/	8cc\
=1	=1	=1
4.F\	8A/L	4a/
.	8c/	.
.	8f/J	8a/
4.C/	8B-/L	4g/
.	8c/	.
.	8e/J	8g/
=2	=2	=2
4.FF/	8A/L	4f/
.	8c/	.
.	8f/J	8f/
4.F\	8A/L	4r
.	8c/	.
.	8f/J	8cc\
=3	=3	=3
4.FF/	8A/L	4cc\
.	8c/	.
.	8f/J	8f/
4.BB-/	8B-/L	4dd\
.	8d/	.
.	8g/J	8dd\
=4	=4	=4
2.C/	8G/L	4.g/
.	8c/	.
.	8e/J	.
.	(8G/L	4r
.	8c/	.
.	8e/J)	8g/
=5	=5	=5
4.F\	8A/L	4a/
.	8c/	.
.	8f/J	8a/
4.C/	8G/L	8b-/L
.	8c/	8a/J
.	8e/J	8b-\
=6	=6	=6
4.FF/	8A/L	4.cc\
.	8c/	.
.	8f/J	.
4.BB-/	8B-/L	4dd\
.	8d/	.
.	8g/J	8dd\
=7	=7	=7
4.C/	8A/L	4f/
.	8c/	.
.	8f/J	8f/
4.CC/	8B-/L	(8g/L
.	8c/	8f/J)
.	8e/J	8g/
=8	=8	=8
[4.FF/	8A/L	4.f/
.	8c/	.
.	8f/J	.
8FF/]	8A/	4r
8r	8r	.
8r	8r	8cc\
*	*clefF4	*
=9	=9	=9
4.D\	8A\L	4f#/
.	8c\	.
.	8d\J	8f#/
4.D\	8F#\L	4dd\
.	8A\	.
.	8d\J	8cc\
=10	=10	=10
2.GG/	8G\L	8.cc\
.	8B-\	.
.	.	16b-\
.	8d\J	8b-\
.	8G\L	4r
.	8B-\	.
.	8d\J	8b-\
=11	=11	=11
4.C/	8G\L	4e/
.	8B-\	.
.	8c\J	8e/
4.C/	8E\L	4cc\
.	8G\	.
.	8c\J	8b-\
=12	=12	=12
2.FF/	8F\L	8.b-\
.	8A\	.
.	.	16a/
.	8c\J	8a/
.	8F\L	4r
.	8A\	.
.	8c\J	8f/
=13	=13	=13
4.GG/	8F\L	4bn\
.	8G\	.
.	8Bn\J	8b\
4.GG/	8F\L	4b\
.	8G\	.
.	8B\J	8b\
=14	=14	=14
[4.CC;/ [4.C;/	[4.E;\ [4.G;\ [4.c;\	4.cc;\
8CC/] 8C/]	8E\] 8G\] 8c\]	4r
8r	8r	.
8r	8r	8cc\
=15	=15	=15
4.C/	8E\L	4b-\
.	8G\	.
.	8c\J	8b-\
4.FF/	8F\L	4a/
.	8A\	.
.	8c\J	8a/
=16	=16	=16
4.C/	8E\L	4g/
.	8G\	.
.	8c\J	8g/
4CC/	8E\L	4r
.	8G\	.
8r	8c\J	8g/
=17	=17	=17
4.FF/	8F\ 8A\L	4a/
.	8c\	.
.	8f\J	8a/
*	*clefG2	*
4.GG/	8B-/L	4b-\
.	8c/	.
.	8e/J	8b-\
=18	=18	=18
4.AA/	(8c/L	4.cc\
.	8f/	.
.	8e-/J	.
4.BB-/	8d/L	4r
.	8g/	.
.	8B-/) 8d/J	8dd\
=19	=19	=19
4.C/	8A/L	4f/
.	8c/	.
.	8f/J	(8f/
4.CC/	8B-/L	8g/L)
.	8c/	8f/J
.	8en/J	8g/
=20	=20	=20
[4.FF/	(8A/L	4.f/
.	8c/	.
.	8f/J)	.
8FF/]	8A/	4r
8r	8r	.
==	==	==
*-	*-	*-
!!!ENC: Craig Stuart Sapp
!!!END: 2004/05/26/
!!!EFL: 077/651
